svg/ynab-light.svg

<svg xmlns="http://www.w3.org/2000/svg" xml:space="preserve" viewBox="0 0 512 512"><path d="M413.3 234.5h-93.6c-2 0-4.5 1.4-5.5 3.1L258 328.9c-1 1.7-2.7 1.7-3.7 0l-55.5-91.3c-1-1.7-3.5-3.1-5.5-3.1H99.2c-2 0-2.7 1.3-1.6 3l110.9 163.1c1.1 1.6 2 4.6 2 6.5V505c0 2 1.6 3.6 3.6 3.6h84.1c2 0 3.6-1.6 3.6-3.6v-97.9c0-2 .9-4.9 2-6.5l111-163.1c1.2-1.6.5-3-1.5-3M249.8 93.4c2.4 1.3 4.8 2.4 6.1 2.4 1.2 0 3.3-.7 6-2.4 53-33.5 8.9-74.5-6-90-15 15.5-59.1 56.5-6.1 90M194 215.5c3-.2 5.8-.7 6.9-1.4s2.6-2.6 4-5.8c27.4-61.6-37.5-72.4-60.4-77.5-4 22.8-18.7 85.9 49.5 84.7M107.2 202c2.6-1.6 4.8-3.3 5.5-4.4.6-1.2 1-3.5.8-6.9-5-67-67.5-46.8-90.1-40.7 7.1 22 24.1 84.6 83.8 52M118 314.4c1.1-2.8 1.9-5.5 1.7-6.8s-1.3-3.4-3.6-6c-44.5-51-82.5 1.9-97.1 20.1 19.2 13.4 70.6 53.8 99-7.3m137.9-204c-11.7 13-46.2 47.5-4.7 75.7 1.9 1.1 3.8 2 4.7 2 1 0 2.6-.6 4.7-2 41.5-28.2 7-62.7-4.7-75.7M141.6 343.1c-.7-.5-2.1-.8-4.2-.8-41.6-.2-34.6 39.2-32.9 53.5 14.1-3.4 54-10.8 39.3-49.1-.7-1.7-1.5-3.2-2.2-3.6m109.5-67.5c1.9 1.1 3.8 2 4.7 2 1 0 2.6-.6 4.7-2 41.5-28.1 7-62.7-4.7-75.7-11.6 13-46.2 47.6-4.7 75.7m-175-21c1.3-1.8 2.4-3.5 2.5-4.5s-.4-2.6-1.6-4.8c-24.7-43.2-62.7-12.5-76.9-2.1 12 12.7 43.8 49.6 76 11.4m42.7-119c2.2-.2 4.3-.4 5.1-1s1.8-2 2.7-4.3C144.4 83.8 96 74.8 78.9 70.7c-2.1 17.3-10.4 65.1 39.9 64.9m68.1-15c2.5.4 4.8.7 5.8.3s2.5-1.7 4.1-4c32.1-45.8-18-68.4-35.6-77.4-6.9 18.2-29.1 68 25.7 81.1M311 214.1c1.1.7 3.9 1.2 6.9 1.4 68.2 1.3 53.5-61.9 49.5-84.7-22.9 5.1-87.7 16-60.4 77.5 1.4 3.1 2.9 5.1 4 5.8m87.6-23.4c-.2 3.4.1 5.7.8 6.9.6 1.2 2.9 2.8 5.5 4.4 59.7 32.5 76.7-30.1 83.9-52.1-22.7-6-85.2-26.2-90.2 40.8m-2.8 110.9c-2.2 2.6-3.4 4.7-3.6 6s.6 4 1.7 6.8c28.4 61.1 79.8 20.7 98.9 7.3-14.5-18.2-52.5-71-97-20.1m-21.3 40.6c-2.1 0-3.5.4-4.2.8s-1.5 1.9-2.2 3.6c-14.7 38.3 25.2 45.7 39.3 49.1 1.7-14.2 8.7-53.6-32.9-53.5m60.6-96.9c-1.2 2.2-1.7 3.9-1.6 4.8.1 1 1.2 2.7 2.5 4.5 32.2 38.2 64 1.2 76.1-11.4-14.3-10.3-52.3-41.1-77 2.1m-47-110.7c.8.5 2.9.8 5.1 1 50.4.2 42-47.5 39.9-64.8-17.1 4.1-65.5 13.1-47.7 59.5.9 2.3 1.9 3.7 2.7 4.3m-68.8-13.7c1 .4 3.3.2 5.8-.3 54.8-13.2 32.6-62.9 25.6-81.1-17.5 9-67.6 31.6-35.6 77.4 1.7 2.3 3.1 3.6 4.2 4" style="fill:#fff"/></svg>

<?xml version="1.0" encoding="utf-8"?>
<!-- Generator: Adobe Illustrator 28.2.0, SVG Export Plug-In . SVG Version: 6.00 Build 0)  -->
<svg version="1.1" id="Layer_1" xmlns="http://www.w3.org/2000/svg" xmlns:xlink="http://www.w3.org/1999/xlink" x="0px" y="0px"
	 viewBox="0 0 512 512" style="enable-background:new 0 0 512 512;" xml:space="preserve">
<style type="text/css">
	.st0{fill:#FFFFFF;}
</style>
<path class="st0" d="M413.3,234.5h-93.6c-2,0-4.5,1.4-5.5,3.1L258,328.9c-1,1.7-2.7,1.7-3.7,0l-55.5-91.3c-1-1.7-3.5-3.1-5.5-3.1
	H99.2c-2,0-2.7,1.3-1.6,3l110.9,163.1c1.1,1.6,2,4.6,2,6.5V505c0,2,1.6,3.6,3.6,3.6h84.1c2,0,3.6-1.6,3.6-3.6v-97.9
	c0-2,0.9-4.9,2-6.5l111-163.1C416,235.9,415.3,234.5,413.3,234.5L413.3,234.5z M249.8,93.4c2.4,1.3,4.8,2.4,6.1,2.4
	c1.2,0,3.3-0.7,6-2.4c53-33.5,8.9-74.5-6-90C240.9,18.9,196.8,59.9,249.8,93.4z M194,215.5c3-0.2,5.8-0.7,6.9-1.4
	c1.1-0.7,2.6-2.6,4-5.8c27.4-61.6-37.5-72.4-60.4-77.5C140.5,153.6,125.8,216.7,194,215.5L194,215.5z M107.2,202
	c2.6-1.6,4.8-3.3,5.5-4.4c0.6-1.2,1-3.5,0.8-6.9c-5-67-67.5-46.8-90.1-40.7C30.5,172,47.5,234.6,107.2,202L107.2,202z M118,314.4
	c1.1-2.8,1.9-5.5,1.7-6.8c-0.2-1.3-1.3-3.4-3.6-6c-44.5-51-82.5,1.9-97.1,20.1C38.2,335.1,89.6,375.5,118,314.4L118,314.4z
	 M255.9,110.4c-11.7,13-46.2,47.5-4.7,75.7c1.9,1.1,3.8,2,4.7,2c1,0,2.6-0.6,4.7-2C302.1,157.9,267.6,123.4,255.9,110.4z
	 M141.6,343.1c-0.7-0.5-2.1-0.8-4.2-0.8c-41.6-0.2-34.6,39.2-32.9,53.5c14.1-3.4,54-10.8,39.3-49.1
	C143.1,345,142.3,343.5,141.6,343.1L141.6,343.1z M251.1,275.6c1.9,1.1,3.8,2,4.7,2c1,0,2.6-0.6,4.7-2c41.5-28.1,7-62.7-4.7-75.7
	C244.2,212.9,209.6,247.5,251.1,275.6z M76.1,254.6c1.3-1.8,2.4-3.5,2.5-4.5s-0.4-2.6-1.6-4.8c-24.7-43.2-62.7-12.5-76.9-2.1
	C12.1,255.9,43.9,292.8,76.1,254.6L76.1,254.6z M118.8,135.6c2.2-0.2,4.3-0.4,5.1-1c0.8-0.6,1.8-2,2.7-4.3
	C144.4,83.8,96,74.8,78.9,70.7C76.8,88,68.5,135.8,118.8,135.6L118.8,135.6z M186.9,120.6c2.5,0.4,4.8,0.7,5.8,0.3
	c1-0.4,2.5-1.7,4.1-4c32.1-45.8-18-68.4-35.6-77.4C154.3,57.7,132.1,107.5,186.9,120.6L186.9,120.6z M311,214.1
	c1.1,0.7,3.9,1.2,6.9,1.4c68.2,1.3,53.5-61.9,49.5-84.7c-22.9,5.1-87.7,16-60.4,77.5C308.4,211.4,309.9,213.4,311,214.1L311,214.1z
	 M398.6,190.7c-0.2,3.4,0.1,5.7,0.8,6.9c0.6,1.2,2.9,2.8,5.5,4.4c59.7,32.5,76.7-30.1,83.9-52.1
	C466.1,143.9,403.6,123.7,398.6,190.7L398.6,190.7z M395.8,301.6c-2.2,2.6-3.4,4.7-3.6,6s0.6,4,1.7,6.8
	c28.4,61.1,79.8,20.7,98.9,7.3C478.3,303.5,440.3,250.7,395.8,301.6L395.8,301.6z M374.5,342.2c-2.1,0-3.5,0.4-4.2,0.8
	s-1.5,1.9-2.2,3.6c-14.7,38.3,25.2,45.7,39.3,49.1C409.1,381.5,416.1,342.1,374.5,342.2L374.5,342.2z M435.1,245.3
	c-1.2,2.2-1.7,3.9-1.6,4.8c0.1,1,1.2,2.7,2.5,4.5c32.2,38.2,64,1.2,76.1-11.4C497.8,232.9,459.8,202.1,435.1,245.3L435.1,245.3z
	 M388.1,134.6c0.8,0.5,2.9,0.8,5.1,1c50.4,0.2,42-47.5,39.9-64.8c-17.1,4.1-65.5,13.1-47.7,59.5C386.3,132.6,387.3,134,388.1,134.6
	L388.1,134.6z M319.3,120.9c1,0.4,3.3,0.2,5.8-0.3c54.8-13.2,32.6-62.9,25.6-81.1c-17.5,9-67.6,31.6-35.6,77.4
	C316.8,119.2,318.2,120.5,319.3,120.9L319.3,120.9z"/>
</svg>
